Educa/src/img/int-card03.svg

<svg width="112" height="54" viewBox="0 0 112 54" fill="none" xmlns="http://www.w3.org/2000/svg">
<rect x="0.356567" y="0.105469" width="111.456" height="53.156" rx="4.28678" fill="white"/>
<rect x="47.5112" y="19.8247" width="30.8648" height="3.42942" fill="#ECEFF6"/>
<rect x="47.5112" y="30.9703" width="53.156" height="3.42942" fill="#ECEFF6"/>
<circle cx="26.506" cy="27.1122" r="14.1464" fill="#FFC700"/>
<g clip-path="url(#clip0_103_234)">
<path d="M32.8117 28.3829C32.6985 28.1029 32.3797 27.9676 32.0997 28.0809C31.8197 28.1941 31.6844 28.5128 31.7976 28.7928L32.4417 30.386L30.5288 29.5428C30.3903 29.4818 30.2327 29.4808 30.0936 29.5402C29.4398 29.8191 28.7395 29.9605 28.012 29.9605C25.0843 29.9605 23.1175 27.6682 23.1175 25.5271C23.1175 23.0826 25.3132 21.0937 28.012 21.0937C30.7109 21.0937 32.9066 23.0826 32.9066 25.5271C32.9066 25.7179 32.8888 25.9462 32.8579 26.1537C32.8133 26.4524 33.0193 26.7307 33.3181 26.7752C33.6168 26.8199 33.8951 26.6138 33.9396 26.3151C33.9788 26.0528 34.0003 25.773 34.0003 25.5271C34.0003 24.0416 33.3712 22.6476 32.2289 21.6021C31.1001 20.569 29.6025 20 28.012 20C26.4216 20 24.924 20.569 23.7952 21.6021C22.7744 22.5364 22.1639 23.749 22.0454 25.0566C20.7615 25.9069 20.0004 27.2694 20.0004 28.737C20.0004 29.6538 20.2892 30.5236 20.839 31.2722L20.0402 33.2481C19.9568 33.4545 20.0068 33.6908 20.1666 33.8457C20.2707 33.9467 20.408 34 20.5473 34C20.6218 34 20.6969 33.9848 20.7678 33.9535L23.0709 32.9382C23.6503 33.1539 24.2627 33.2631 24.8948 33.2631C24.9085 33.2631 24.9219 33.262 24.9354 33.261C25.8497 33.2541 26.7385 33.0136 27.5084 32.5636C28.1979 32.1604 28.7651 31.6066 29.1628 30.9526C29.551 30.8828 29.9305 30.7775 30.2988 30.6367L33.2328 31.9301C33.3038 31.9613 33.3788 31.9766 33.4533 31.9766C33.5927 31.9765 33.7299 31.9233 33.8341 31.8223C33.9939 31.6674 34.0439 31.4311 33.9604 31.2247L32.8117 28.3829ZM24.8949 32.1679C24.8874 32.1679 24.8802 32.1688 24.8728 32.1691C24.3143 32.1662 23.7769 32.0565 23.2749 31.8423C23.1358 31.7829 22.9782 31.7838 22.8397 31.8449L21.559 32.4094L21.9722 31.3875C22.0485 31.1986 22.0135 30.9828 21.8813 30.8277C21.3663 30.2235 21.0941 29.5006 21.0941 28.737C21.0941 27.8631 21.4617 27.035 22.105 26.4071C22.3052 27.4988 22.8703 28.5432 23.7227 29.3635C24.7834 30.3843 26.1864 30.9757 27.7013 31.0469C26.9901 31.7471 25.9722 32.1679 24.8949 32.1679Z" fill="white"/>
<path d="M27.9844 26.0977C28.2864 26.0977 28.5313 25.8528 28.5313 25.5508C28.5313 25.2488 28.2864 25.0039 27.9844 25.0039C27.6824 25.0039 27.4375 25.2488 27.4375 25.5508C27.4375 25.8528 27.6824 26.0977 27.9844 26.0977Z" fill="white"/>
<path d="M30.1719 26.0977C30.4739 26.0977 30.7188 25.8528 30.7188 25.5508C30.7188 25.2488 30.4739 25.0039 30.1719 25.0039C29.8699 25.0039 29.625 25.2488 29.625 25.5508C29.625 25.8528 29.8699 26.0977 30.1719 26.0977Z" fill="white"/>
<path d="M25.7969 26.0977C26.0989 26.0977 26.3437 25.8528 26.3437 25.5508C26.3437 25.2488 26.0989 25.0039 25.7969 25.0039C25.4948 25.0039 25.25 25.2488 25.25 25.5508C25.25 25.8528 25.4948 26.0977 25.7969 26.0977Z" fill="white"/>
</g>
<defs>
<clipPath id="clip0_103_234">
<rect width="14" height="14" fill="white" transform="translate(20 20)"/>
</clipPath>
</defs>
</svg>

<svg xmlns="http://www.w3.org/2000/svg" xmlns:xlink="http://www.w3.org/1999/xlink" width="112" height="54" fill="none" xmlns:v="https://vecta.io/nano"><rect x=".357" y=".105" width="111.456" height="53.156" rx="4.287" fill="#fff"/><path d="M47.511 19.825h30.865v3.429H47.511zm0 11.145h53.156v3.43H47.511z" fill="#eceff6"/><circle cx="26.506" cy="27.112" r="14.146" fill="#ffc700"/><g clip-path="url(#A)" fill="#fff"><path d="M32.812 28.383c-.113-.28-.432-.415-.712-.302s-.415.432-.302.712l.644 1.593-1.913-.843c-.139-.061-.296-.062-.435-.003-.654.279-1.354.42-2.082.42-2.928 0-4.895-2.292-4.895-4.433 0-2.445 2.196-4.433 4.895-4.433s4.895 1.989 4.895 4.433c0 .191-.018.419-.049.627-.045.299.161.577.46.622s.577-.161.621-.46a5.51 5.51 0 0 0 .061-.788c0-1.486-.629-2.879-1.771-3.925C31.1 20.569 29.603 20 28.012 20s-3.088.569-4.217 1.602c-1.021.934-1.631 2.147-1.75 3.454-1.284.85-2.045 2.213-2.045 3.68 0 .917.289 1.787.839 2.535l-.799 1.976c-.083.206-.033.443.126.598.104.101.241.154.381.154.075 0 .15-.015.221-.047l2.303-1.015c.579.216 1.192.325 1.824.325.014 0 .027-.001.041-.002.914-.007 1.803-.247 2.573-.697a4.71 4.71 0 0 0 1.654-1.611 6.3 6.3 0 0 0 1.136-.316l2.934 1.293c.071.031.146.047.221.047.139 0 .277-.053.381-.154.16-.155.21-.391.126-.598l-1.149-2.842zm-7.917 3.785c-.008 0-.015.001-.022.001a4.1 4.1 0 0 1-1.598-.327c-.139-.059-.297-.059-.435.003l-1.281.564.413-1.022c.076-.189.041-.405-.091-.56-.515-.604-.787-1.327-.787-2.091 0-.874.368-1.702 1.011-2.33a5.52 5.52 0 0 0 1.618 2.956c1.061 1.021 2.464 1.612 3.979 1.683-.711.7-1.729 1.121-2.806 1.121z"/><use xlink:href="#B"/><path d="M30.172 26.098c.302 0 .547-.245.547-.547s-.245-.547-.547-.547-.547.245-.547.547.245.547.547.547zm-4.375 0c.302 0 .547-.245.547-.547s-.245-.547-.547-.547-.547.245-.547.547.245.547.547.547z"/></g><defs><clipPath id="A"><path fill="#fff" transform="translate(20 20)" d="M0 0h14v14H0z"/></clipPath><path id="B" d="M27.984 26.098c.302 0 .547-.245.547-.547s-.245-.547-.547-.547-.547.245-.547.547.245.547.547.547z"/></defs></svg>
